!!!COM: Beethoven, Ludwig van
!!!CDT: 1770///-1827///
!!!OTL: Piano Sonata no. 6 in F major
!!!ODT: 1795///-1797///
!!!OMD: FINALE\nPresto
!!!OPS: 10
!!!ONM: 2
!!!OMV: 3
**kern	**kern	**dynam
*staff2	*staff1	*staff1/2
*Ipiano	*Ipiano	*Ipiano
*>[A,A,B,B]	*>[A,A,B,B]	*>[A,A,B,B]
*>norep[A,B]	*>norep[A,B]	*>norep[A,B]
*>A	*>A	*>A
*clefF4	*clefG2	*
*k[b-]	*k[b-]	*
*F:	*F:	*
*M2/4	*M2/4	*
*MM152	*MM152	*
8C'	8r	mf
=1	=1	=1
8F'L	2r	.
8F'	.	.
8F'	.	.
8C'J	.	.
=2	=2	=2
8A'L	2r	.
8A'	.	.
8A'	.	.
8F'J	.	.
=3	=3	=3
8c'L	2r	.
8c'J	.	.
(16cLL	.	.
16d	.	.
16c	.	.
16B-JJ)	.	.
=4	=4	=4
8A'L	4r	.
8A'J	.	.
(16ALL	8r	.
16B-	.	.
16A	8c'	.
16GJJ)	.	.
=5	=5	=5
8A'L	8f'L	.
(16cL	8f'	.
16B-JJ)	.	.
8A'L	8f'	.
8G'J	8c'J	.
=6	=6	=6
8F'L	8a'L	.
8E'	8a'	.
8F'	8a'	.
8D'J	8f'J	.
!!LO:LB:g=original
=7	=7	=7
8E'L	8cc'L	.
8C'	8cc'J	.
8D'	(16ccLL	.
.	16dd	.
8E'J	16cc'	.
.	16b-JJ)	.
=8	=8	=8
*	*^	*
8F'L	8a'L	4ryy	.
8G'	8a'J	.	.
8A'	16gLL	8ryy	.
.	16a	.	.
8Bn'J	16g	8g	.
.	16fJJ	.	.
*clefG2	*	*	*
*	*v	*v	*
=9	=9	=9
8c' 8e'L	8cc'L<	.
8d' 8f'	8cc'	.
8e' 8g'	8cc'	.
8d' 8f'J	8g'J	.
=10	=10	=10
8c' 8e'L	8ee'L	.
8Bn' 8d'	8ee'	.
8c' 8e'	8ee	.
8A' 8c'J	8cc'J	.
=11	=11	=11
8Bn' 8d'L	8gg'L	.
8G' 8B'	8gg'J	.
8A' 8c'	(16ggLL	.
.	16aa	.
8B' 8d'J	16gg	.
.	16ffJJ)	.
=12	=12	=12
8c' 8e'L	8ee'L	.
8d' 8f'	8ee'J	.
8e' 8g'	(16eeLL	.
.	16dd	.
8c' 8e'J	16ee	.
.	16ccJJ)	.
=13	=13	=13
8c#' 8e'L	8aa'L	.
8A' 8c#'	8aa'J	.
8Bn' 8d'	(16aaLL	.
.	16bb-X	.
8c#' 8e'J	16aa	.
.	16ggJJ)	.
!!LO:LB:g=original
=14	=14	=14
8d' 8f'L	8ff'L	.
8e' 8g'	8ff'J	.
8f' 8a'	(16ffLL	.
.	16ee	.
8d' 8f'J	16ff	.
.	16ddJJ)	.
=15	=15	=15
8Bn 8d 8gL	8fff'L	.
8B 8d 8gJ	8fff'J	.
8c 8e 8g	(16eeeLL	.
.	16ddd#	.
8r	16eee	.
.	16cccJJ)	.
=16	=16	=16
8Bn 8d 8gL	8fff'L	.
8B 8d 8gJ	8fff'J	.
8c 8e 8g	(16eeeLL	.
.	16ddd#	.
8r	16eee	.
.	16cccJJ)	.
*clefF4	*	*
=17	=17	=17
8F 8A 8d	(16dddnLL	.
.	16ccc	.
8r	16bbn	.
.	16aaJJ	.
8G 8Bn 8d	16ggLL	.
.	16ff	.
8r	16ee	.
.	16ddJJ)	.
=18	=18	=18
4C 4E 4G 4c	(16ccLL	.
.	16bn	.
.	16cc	.
.	16ddJJ	.
4r	16eeLL	.
.	16ff	.
.	16gg	.
.	16eeJJ)	.
=19	=19	=19
8BBn 8D 8F 8GL	(16ffLL	sf
.	16dd	.
8BB 8D 8F 8GJ	16ff	.
.	16ddJJ	.
8C 8E 8G	16eeLL	.
.	16dd#	.
8r	16ee	.
.	16ccJJ)	.
!!LO:LB:g=original
=20	=20	=20
8BBn 8D 8F 8GL	(16ffLL	sf
.	16ddn	.
8BB 8D 8F 8GJ	16ff	.
.	16ddJJ	.
8C 8E 8G	16eeLL	.
.	16dd#	.
8r	16ee	.
.	16ccJJ)	.
=21	=21	=21
8FFL<	(16aaLL	f
.	16gg#	.
8F	16aa	.
.	16gg#JJ	.
8F	16aaLL	.
.	16ggn	.
8FJ	16ff	.
.	16eeJJ)	.
=22	=22	=22
8GGL<	(16ddLL	.
.	16cc	.
8G	16bn	.
.	16aJJ	.
8G	16gLL	.
.	16f	.
8GJ	16e	.
.	16dJJ)	.
*	*clefF4	*
=23	=23	=23
*^	*	*
8C'L	2CC	8c'L	.
8C'	.	8E' 8G'	p
8C'	.	8E' 8G'	.
8GG'J	.	8E' 8c'J	.
=24	=24	=24	=24
8C'L	2CC	8E' 8G'L	.
8C'	.	8E' 8G'	.
8C'	.	8E' 8G'	.
8GG'J	.	8E' 8c'J	.
=25	=25	=25	=25
8D'L	2CC	8F' 8G'L	.
8C'	.	8F' 8d'	.
8BBn'	.	8F' 8d'	.
8AA'J	.	8F' 8d'J	.
!!LO:LB:g=original
=26	=26	=26	=26
8GG'L	2CC	8F' 8d'L	.
8AA'	.	8F' 8d'J	.
8BBn'	.	16F (16dLL	.
.	.	16e	.
8GG'J	.	16F 16d	.
.	.	16eJJ)	.
=27	=27	=27	=27
8C'L	2CC	8E' 8c'L	.
8C'	.	8E' 8G'	.
8C'	.	8E' 8G'	.
8GG'J	.	8E' 8c'J	.
=28	=28	=28	=28
8C'L	2CC	8E' 8G'L	.
8C'	.	8E' 8G'	.
8C'	.	8E' 8G'	.
8GG'J	.	8E' 8c'J	.
=29	=29	=29	=29
8D'L	[2CC	8F' 8G'L	.
8C'	.	8F' 8d'	.
8BBn'	.	8F' 8d'	.
8AA'J	.	8F' 8d'J	.
=30	=30	=30	=30
8GG'L	2CC]	8F' 8d'L	.
8AA'	.	8F' 8d'J	.
8BBn'	.	16F (16dLL	.
.	.	16e	.
8GG'J	.	16F 16d	.
.	.	16eJJ)	.
*v	*v	*	*
=31	=31	=31
8CC' 8C'L	8E' 8c'L	.
8GG'	8G'	.
8CC' 8C'	8E 8c	.
8GG'J	8G'J	.
=32	=32	=32
4CC 4C	4E 4c	.
8r	8r	.
!!LO:LB:g=original
=:|!|:	=:|!|:	=:|!|:
*>B	*>B	*>B
8EE-'	8E-'	f
=33	=33	=33
8AA-'L	8A-'L	.
8AA-'J	8A-'J	.
(BB-8q	(B-8q	.
(16AA-LL)	(16A-LL)	.
16GG	16G	.
16AA-	16A-	.
16BB-JJ)	16B-JJ)	.
*	*clefG2	*
=34	=34	=34
8C'L	8c'L	sf
8CJ	8c'J	.
(D-8q	(d-8q	.
(16CLL)	(16cLL)	.
16BBn	16Bn	.
16C	16c	.
16D-JJ)	16d-JJ)	.
=35	=35	=35
8E-'L	8e-'L	sf
8E-'J	8e-'J	.
(F8q	(f8q	.
(16E-LL)	16e-LL)	.
16Dn	16dn	.
16E-	16e-	.
16FJJ)	16fJJ	.
=36	=36	=36
8G'L	8g'L	sf
8G'J	8gJ	.
(16GLL	(16gLL	.
16E-	16e-	.
16F	16f	.
16GJJ)	16gJJ)	.
=37	=37	=37
16A-LL	8a-'L	fp
16c	.	.
16A-	8a-'	.
16cJJ	.	.
16A-LL	8a-'	.
16c	.	.
16A-	8e-'J	.
16cJJ	.	.
!!LO:LB:g=original
=38	=38	=38
16A-LL	8cc'L	.
16c	.	.
16A-	8cc'	.
16cJJ	.	.
16A-LL	8cc'	.
16c	.	.
16A-	8a-'J	.
16cJJ	.	.
=39	=39	=39
16A-LL	8ee-'L	.
16B-	.	.
16A-	8ee-'J	.
16B-JJ	.	.
16A-LL	(16ee-LL	.
16B-	16ff	.
16A-	16ee-	.
16B-JJ	16ddnJJ)	.
=40	=40	=40
16E- 16GLL	8ee-'L	.
16B-	.	.
16E- 16G	8ee-'J	.
16B-JJ	.	.
16E- 16GLL	(16ee-LL	.
16B-	16ff	.
16E- 16G	16ee-	.
16B-JJ	16dd-JJ)	.
=41	=41	=41
4A-	8cc' 8aa-'	.
.	8aa-'L	.
*clefG2	*	*
8r	8aa-'	.
8c'	8ee-J	.
=42	=42	=42
8a-'L	8ccc'L	.
8a-'	8ccc'	.
8a-'	8ccc'	.
8e-'J	8aa-'J	.
=43	=43	=43
8cc'L	8eee-'L	.
8cc'J	8eee-'J	.
(16ccLL	(16eee-LL	.
16dd-	16fff	.
16cc	16eee-	.
16b-JJ)	16ddd-JJ)	.
!!LO:LB:g=original
=44	=44	=44
8an'L	8ccc'L	.
8ee-'J	8ccc'J	.
(16ee-LL	(16cccLL	.
16ff	16ddd-	.
16ee-	16ccc	.
16dd-JJ)	16bb-JJ)	.
=45	=45	=45
*	*^	*
8cc'L	8aan'L	8ee-L	f
8cc'J	8aa'J	8ee-J	.
(16ccLL	8aaL	(16ee-LL	.
16dd-	.	16ff	.
16cc	8bb-J	16ee-	.
16b-JJ)	.	16dd-JJ)	.
=46	=46	=46	=46
8an'L	4ccc	4cc	.
8a'J	.	.	.
(16aLL	4r	4r	.
16b-	.	.	.
16a	.	.	.
16fJJ)	.	.	.
*	*v	*v	*
=47	=47	=47
4b-/	8ddd-'L	.
.	8ddd-'J	.
4r	(16ddd-LL	.
.	16eee-	.
.	16ddd-	.
.	16cccJJ)	.
=48	=48	=48
8dd-'L	8bb-'L	.
8dd-'J	8bb-'J	.
(16dd-LL	(16bb-LL	.
16ee-	16ccc	.
16dd-	16bb-	.
16ccJJ)	16aa-JJ)	.
=49	=49	=49
8b-'L	8een' 8gg'L	.
8b-'J	8ee' 8gg'	.
(16b-LL	8ee 8gg	.
16cc	.	.
16b-	8ff' 8aa-'J	.
16a-JJ)	.	.
!!LO:LB:g=original
=50	=50	=50
(16gLL	2gg 2bb-	.
16a-	.	.
16g	.	.
16fJJ	.	.
16enLL	.	.
16d	.	.
16e	.	.
16cJJ)	.	.
=51	=51	=51
2f	8aa-'L	sf
.	8aa-'J	.
.	(16aa-LL	.
.	16gg	.
.	16aa-	.
.	16ffJJ)	.
=52	=52	=52
*	*^	*
2g	2bbn	8ff'L	sf
.	.	8ff'J	.
.	.	(>16ffLL	.
.	.	16ee-	.
.	.	16ff	.
.	.	16ddJJ)	.
=53	=53	=53	=53
2c	8ccc'L	4ee-	sf
.	8ccc'J	.	.
.	(16cccLL	4r	.
.	16bbn	.	.
.	16ccc	.	.
.	16eee-JJ)	.	.
=54	=54	=54	=54
2d	2ff#	8cc'L	sf
.	.	8cc'J	.
.	.	(16ccLL	.
.	.	16bn	.
.	.	16cc	.
.	.	16aJJ)	.
=55	=55	=55	=55
2G	4gg	8b-X'L	sf
.	.	8b-'J	.
.	4r	(16b-LL	.
.	.	16a	.
.	.	16b-	.
.	.	16gJJ)	.
!!LO:LB:g=original
=56	=56	=56	=56
*clefF4	*	*	*
2D 2d	8ff#'L	2cc	sf
.	8ff#'J	.	.
.	(16ff#LL	.	.
.	16ee	.	.
.	16ff#	.	.
.	16ddJJ)	.	.
=57	=57	=57	=57
2GG\ 2G\	8gg'L	4b-	sf
.	8gg'J	.	.
.	(16ggLL	4r	.
.	16ff#	.	.
.	16gg	.	.
.	16bb-JJ)	.	.
=58	=58	=58	=58
2AA 2A	2cc#	8g'L	sf
.	.	8g'J	.
.	.	(16gLL	.
.	.	16fn	.
.	.	16g	.
.	.	16eJJ)	.
=59	=59	=59	=59
2DD 2D	4dd	8f'L	sf
.	.	8f'J	.
.	4r	(16fLL	.
.	.	16e	.
.	.	16f	.
.	.	16dJJ)	.
=60	=60	=60	=60
2AA 2A	8cc#'L	2g	sf
.	8cc#'J	.	.
.	(16cc#LL	.	.
.	16bn	.	.
.	16cc#	.	.
.	16aJJ)	.	.
=61	=61	=61	=61
2DD 2D	8dd'L	4f	sf
.	8dd'J	.	.
.	(16ddLL	4r	.
.	16cc#	.	.
.	16dd	.	.
.	16ffJJ)	.	.
=62	=62	=62	=62
2BBB- 2BB-	2g#	8f'L	.
.	.	8f'J	.
.	.	(16fLL	.
.	.	16e	.
.	.	16f	.
.	.	16dJJ)	.
!!LO:LB:g=original
=63	=63	=63	=63
8AAA' 8AA'L	2az	8c#'L	.
8E'J	.	8c#'J	.
(>16ELL>	.	(16c#LL	.
16D#	.	16Bn	.
16E	.	16c#	.
16C#JJ)	.	16AJJ)	.
=64	=64	=64	=64
*^	*	*	*
8F'L	2AA	2g#z	8dL	.
8F'J	.	.	8d'J	.
(16FLL	.	.	(16dLL	.
16E	.	.	16c#	.
16F	.	.	16d	.
16DnJJ)	.	.	16BnJJ)	.
=65	=65	=65	=65	=65
8E'L	2AA	2az	8c#'L	.
8E'J	.	.	8c#'J	.
(16ELL	.	.	(16c#LL	.
16D#	.	.	16Bn	.
16E	.	.	16c#	.
16C#JJ)	.	.	16AJJ)	.
=66	=66	=66	=66	=66
8F'L	2AA	2g#z	8d'L	.
8F'J	.	.	8d'J	.
(16FLL	.	.	(16dLL	.
16E	.	.	16c#	.
16F	.	.	16d	.
16DnJJ)	.	.	16BnJJ)	.
*v	*v	*	*	*
*	*v	*v	*
=67	=67	=67
4AA 4E	8c# 8a	f
.	(16aaLL	p
.	16gg#JJ	.
4r	16aaLL	.
.	16gg#	.
.	16aa	.
.	16gg#JJ	.
=68	=68	=68
2r	16aaLL	.
.	16gg#	.
.	16aa	.
.	16gg#JJ	.
.	16aaLL	.
.	16gg#	.
.	16aa	.
.	16gg#JJ)	.
!!LO:LB:g=original
=69	=69	=69
*^	*^	*
8d'L	2D	8ff#' 8aa'L	8aL	p
8d'	.	8ff# 8aa	8a	.
8d'	.	8ff#' 8aa'	8a	.
8A'J	.	8ff#' 8aa'J	8ddJ	.
=70	=70	=70	=70	=70
8d'L	2D	8ff#' 8aa'L	8aL	.
8d'	.	8ff#' 8aa'	8a	.
8d'	.	8ff#' 8aa'	8a	.
8A'J	.	8ff#' 8aa'J	8ddJ	.
=71	=71	=71	=71	=71
8e'L	[2D	8aa'L	8ggL	.
8d'	.	8bbn'	8gg 8aa	.
8c#'	.	8ccc#'	8gg 8aa	.
8Bn'J	.	8ddd'J	8gg 8aaJ	.
=72	=72	=72	=72	=72
8A'L	2D]	8eee'L	8gg 8aaL	.
8c#'	.	8ccc#'	8gg 8aa	.
8Bn'	.	8ddd'	8gg 8aa	.
8A'J	.	8eee'J	8gg 8aaJ	.
=73	=73	=73	=73	=73
8d'L	2D	8ff#' 8aa'L	8aL	.
8d'	.	8ff#' 8aa'	8a	.
8d'	.	8ff#' 8aa'	8a	.
8A'J	.	8ff#' 8aa'J	8ddJ	.
=74	=74	=74	=74	=74
8d'L	2D	8ff#' 8aa'L	8aL	.
8d'	.	8ff#' 8aa'	8a	.
8d	.	8ff#' 8aa'	8a	.
8A'J	.	8ff#' 8aa'J	8ddJ	.
=75	=75	=75	=75	=75
8e'L	[2D	8aa'L	8ggL	.
8d'	.	8bbn'	8gg 8aa	.
8c#'	.	8ccc#'	8gg 8aa	.
8Bn'J	.	8ddd'J	8gg 8aaJ	.
=76	=76	=76	=76	=76
8A'L	2D]	8eee'L	8gg 8aaL	.
8c#'	.	8ccc#'	8gg 8aa	.
8Bn'	.	8ddd'	8gg 8aa	.
8A'J	.	8eee'J	8gg 8aaJ	.
*v	*v	*	*	*
*clefG2	*	*	*
!!LO:LB:g=original
=77	=77	=77	=77
8dd'L	8aa'L	8ff#L	.
8ccn'	8aa'	8ff#	.
8bn'	8bbn'	8ff#	.
8a'J	8cccn'J	8ff#J	.
=78	=78	=78	=78
8g'L	8ddd'L	8ffnL	.
8bn'	8bbn'	8ff	.
8a'	8ccc'	8ff	.
8g'J	8ddd'J	8ffJ	.
=79	=79	=79	=79
8cc'L	8gg'L	8eeL	.
8b-X'	8gg'	8ee	.
8a'	8aa'	8ee	.
8g'J	8bb-'J	8eeJ	.
=80	=80	=80	=80
8f'L	8ccc'L	8ee-L	.
8a'	8aa'	8ee-	.
8g'	8bb-'	8ee-	.
8f'J	8ccc'J	8ee-J	.
*	*v	*v	*
=81	=81	=81
8b-'L	8dd' 8ff'L	<
8cc'	8dd' 8ff'	.
8b-'	8een' 8gg'	.
8a'J	8ff' 8aa'J	.
=82	=82	=82
8g'L	8gg' 8bb-'L	.
8f'	8gg' 8bb-'	.
8e'	8gg' 8bb-'	.
8d'J	8gg' 8bb-'J	.
*clefF4	*	*
=83	=83	=83
8c'L	8gg' 8bb-'L	.
8Bn'	8gg' 8bb-'	.
8B-'	8gg' 8bb-'	.
8A'J	8gg' 8bb-'J	.
=84	=84	=84
8G'L	8gg' 8bb-'L	f
8F'	8aa' 8bb-'	.
8E'	8gg' 8bb-'	.
8D'J	8ff' 8bb-'J	.
!!LO:LB:g=original
=85	=85	=85
4C	16ee (16bb-LL	sf
.	16ccc	.
.	16ddd	.
.	16cccJJ	.
4r	16bb-LL	.
.	16aa	.
.	16gg	.
.	16ffJJ)	.
=86	=86	=86
4r	(16eeLL	.
.	16ff	.
.	16gg	.
.	16ffJJ	.
8r	16eeLL	.
.	16dd	.
!	!	!LO:DY:b=2:rj
(24CCLL	16cc	ff
24DD	.	.
.	16b-JJ)	.
24EEJJ)	.	.
=87	=87	=87
8FF'L	8aL	ff
8FF'	16cccL	.
.	16bb-JJ	.
8FF'	16aaLL	.
.	16gg	.
8CC'J	16ff	.
.	16eeJJ	.
=88	=88	=88
8AA'L	16ffLL	.
.	16ee	.
8AA'	16dd	.
.	16ccJJ	.
8AA'	16b-LL	.
.	16a	.
8FF'J	16g	.
.	16fJJ	.
=89	=89	=89
8C'L	16eLL	.
.	16f	.
8C'J	16g	.
.	16fJJ	.
(16CLL	16eLL	.
16D	16c	.
16C	16d	.
16BB-JJ)	16eJJ	.
=90	=90	=90
8AA'L	16fLL	.
.	16c	.
8AA'J	16f	.
.	16cJJ	.
(16AALL	16fLL	.
16BB-	16c	.
16AA	16g	.
16GGJJ)	16cJJ	.
!!LO:LB:g=original
=91	=91	=91
8FF	8a'L	.
16cLL	8f'	.
16B-JJ	.	.
16ALL	8f'	.
16G	.	.
16F	8c'J	.
16EJJ	.	.
=92	=92	=92
16FLL	8a'L	.
16E	.	.
16D	8a'	.
16CJJ	.	.
16BB-LL	8a'	.
16AA	.	.
16GG	8f'J	.
16FFJJ	.	.
=93	=93	=93
16EELL	8cc'L	.
16FF	.	.
16GG	8cc'J	.
16FFJJ	.	.
16EELL	(16ccLL	.
16CC	16dd	.
16DD	16cc	.
16EEJJ	16b-JJ)	.
=94	=94	=94
8FF'L	16aLL<	.
.	16cc	.
8EE-'	16g	.
.	16cc#JJ	.
8DD'	16f#LL<	.
.	16dd	.
8FF#'J	16a	.
.	16ccnJJ	.
=95	=95	=95
8GG'L	8b-L	.
8GG'	16dddL	.
.	16cccJJ	.
8GG'	16bb-LL	.
.	16aa	.
8DD'J	16gg	.
.	16ff#JJ	.
=96	=96	=96
8BB-'L	16ggLL	.
.	16ffn	.
8BB-'	16ee-	.
.	16ddJJ	.
8BB-'	16ccLL<	.
.	16b-	.
8GG'J	16a	.
.	16gJJ	.
!!LO:LB:g=original
=97	=97	=97
8D'L>	16f#LL	.
.	16g	.
8D'J	16a	.
.	16gJJ	.
(16DLL>	16f#LL	.
16E-	16d	.
16D	16eni	.
16CJJ)	16f#JJ	.
=98	=98	=98
8BB-'L	16gLL	.
.	16d	.
8BB-'J	16g	.
.	16dJJ	.
(16BB-LL	16gLL	.
16C	16d	.
16BB-	16a	.
16AAJJ)	16dJJ	.
=99	=99	=99
8GG	8b-'L	.
16dLL	8g'	.
16cJJ	.	.
16B-LL	8g'	.
16A	.	.
16G	8d'J	.
16F#JJ	.	.
=100	=100	=100
16GLL	8b-'L	.
16Fn	.	.
16E-	8b-'	.
16DJJ	.	.
16CLL	8b-'	.
16BB-	.	.
16AA	8g'J	.
16GGJJ	.	.
=101	=101	=101
16FF#LL	8dd'L	.
16GG	.	.
16AA	8dd'J	.
16GGJJ	.	.
16FF#LL	(16ddLL	.
16DD	16ee-	.
16EEni	16dd	.
16FF#JJ	16ccJJ)	.
=102	=102	=102
8GGL	16b-LL	.
.	16dd	.
8GG-	16een	.
.	16b-JJ	.
8FF	16ffLL	.
.	16a	.
8AAJ	16ee-	.
.	16ccJJ	.
!!LO:LB:g=original
=103	=103	=103
8BB-'L	8dd	.
8BB-'	16fffLL	.
.	16eee-JJ	.
8BB-'	16dddLL	.
.	16ccc	.
8FF'J	16bb-	.
.	16aaJJ	.
=104	=104	=104
8D'L	16bb-LL	.
.	16aa	.
8D'	16gg	.
.	16ffJJ	.
8D'	16ee-LL	.
.	16dd	.
8BB-'J	16cc	.
.	16b-JJ	.
=105	=105	=105
8F'L	16aLL>	.
.	16b-	.
8F'J	16cc	.
.	16b-JJ	.
(16FLL	16aLL	.
16G	16f	.
16F	16g	.
16E-JJ)	16aJJ	.
=106	=106	=106
8D'L	16b-LL	.
.	16f	.
8D'J	16b-	.
.	16fJJ	.
(16DLL	16b-LL	.
16E-	16f	.
16D	16cc	.
16CJJ)	16fJJ	.
=107	=107	=107
8BB-	8dd-	.
16B-LL	16b-LL	p
16d-JJ	16bb-JJ	.
16B-LL	16b-LL	.
16d-	16bb-	.
16B-	16f	.
16d-JJ	16ffJJ	.
=108	=108	=108
16B-LL	16dd-LL	.
16d-	16ddd-	.
16B-	16dd-	.
16d-JJ	16ddd-JJ	.
16B-LL	16dd-LL	.
16d-	16ddd-	.
16B-	16b-	.
16d-JJ	16bb-JJ	.
!!LO:LB:g=original
=109	=109	=109
16FLL	16ffLL	<
16c	16fff	.
16A	16ff	.
16cJJ	16fffJJ	.
16ALL	16ffLL	.
16c	16fff	.
16A	16ee-	.
16cJJ	16eee-JJ	.
=110	=110	=110
16B-LL	16dd-LL	.
16d-	16ddd-	.
16B-	16dd-	.
16d-JJ	16ddd-JJ	.
16B-LL	16dd-LL	.
16d-	16ddd-	.
16B-	16b-	.
16d-JJ	16bb-JJ	.
=111	=111	=111
16FLL	16ffLL	.
16c	16fff	.
16A	16ff	.
16cJJ	16fffJJ	.
16ALL	16ffLL	.
16c	16fff	.
16A	16ee-	.
16cJJ	16eee-JJ	.
=112	=112	=112
16B-LL	16dd-LL	.
16d-	16ddd-	.
16B-	16dd-	.
16d-JJ	16ddd-JJ	.
16B-LL	16dd-LL	.
16d-	16ddd-	.
16c	16cc	.
16e-JJ	16cccJJ	.
=113	=113	=113
16d-LL	16b-LL	.
16f	16bb-	.
16d-	16b-	.
16fJJ	16bb-JJ	.
16d-LL	16b-LL	.
16f	16bb-	.
16c	16a-	.
16e-JJ	16aa-JJ	.
=114	=114	=114
16B-LL	16g-LL	.
16d-	16gg-	.
16B-	16g-	.
16d-JJ	16gg-JJ	.
16B-LL	16g-LL	.
16d-	16gg-	.
16A-	16f	.
16cJJ	16ffJJ	.
!!LO:LB:g=original
=115	=115	=115
16GnLL	16enLL<	f
16B-	16een	.
16G	16e	.
16B-JJ	16eeJJ	.
16GLL	16eLL	.
16B-	16ee	.
16G	16gn	.
16B-JJ	16ggnJJ	.
=116	=116	=116
!	!	!LO:HP:t=più %s
16A-LL	16fLL	<
16c	16ff	.
16A-	16a-	.
16cJJ	16aa-JJ	.
16EnLL	16gLL	.
16c	16gg	.
16E	16b-	.
16cJJ	16bb-JJ	.
=117	=117	=117
16FLL	16a-LL	.
16c	16aa-	.
16F	16cc	.
16cJJ	16cccJJ	.
16E-LL	16anLL	.
16F	16aan	.
16E-	16cc	.
16FJJ	16cccJJ	.
=118	=118	=118
16D-LL	16b-LL	.
16F	16bb-	.
16D-	16dd-	.
16FJJ	16ddd-JJ	.
16AAnLL<	16ccLL	.
16F	16ccc	.
16AA	16ee-	.
16FJJ	16eee-JJ	.
=119	=119	=119
16BB-LL	16dd-LL	ff
16F	16ddd-	.
16BB-	16dd-	.
16FJJ	16ddd-JJ	.
16BB-LL	16dd-LL	.
16F	16ddd-	.
16C	16cc	.
16FJJ	16cccJJ	.
=120	=120	=120
16D-LL	16bnLL	.
16F	16bbn	.
16D-	16b	.
16FJJ	16bbJJ	.
16D-LL<	16bLL	.
16F	16bb	.
16DD-	16ff	.
16D-JJ	16fffJJ	.
!!LO:LB:g=original
=121	=121	=121
16CCLL	16eenLL	.
16C	16eeen	.
16CC	16ee	.
16CJJ	16eeeJJ	.
16CCLL	16eeLL	.
16C	16eee	.
16EE	16b-X	sf
16EJJ	16bb-XJJ	.
=122	=122	=122
16FFLL	16anLL	.
16F	16aan	.
16FF	16a	.
16FJJ	16aaJJ	.
16FFLL	16aLL	.
16F	16aa	.
16AAA	16ee-	sf
16AAJJ	16eee-JJ	.
=123	=123	=123
16BBB-LL	8dd	f
16BB-	.	.
16BBB-	(16dddLL	.
16BB-JJ	16ccc#JJ	.
16BBB-LL	16dddLL	.
16BB-	16cccn	.
16BBBn	16bb-	.
16BBnJJ	16aaJJ	.
=124	=124	=124
16CCLL	16ggLL	.
16C	16ff	.
16CC	16een	.
16CJJ	16ddJJ	.
16CCLL	16ccLL<	.
16C	16b-X	.
16CC	16a	.
16CJJ	16gJJ)	.
=125	=125	=125
*^	*	*
8F'L	2FF	8f'L	fp
8F'	.	8A' 8c'	.
8F'	.	8A' 8c'	.
8C'J	.	8A' 8f'J	.
=126	=126	=126	=126
8F'L	2FF	8A' 8c'L	.
8F'	.	8A' 8c'	.
8F'	.	8A' 8c'	.
8C'J	.	8A' 8f'J	.
!!LO:LB:g=original
=127	=127	=127	=127
8G'L	[2FF	8B-' 8c'L	.
8F'	.	8B-' 8g'	.
8E'	.	8B-' 8g'	.
8D'J	.	8B-' 8g'J	.
=128	=128	=128	=128
8C'L	2FF]	8B-' 8g'L	.
8D'	.	8B-' 8g'J	.
8E'	.	(16B- 16gLL	.
.	.	16a	.
8C'J	.	16B- 16g	.
.	.	16aJJ)	.
=129	=129	=129	=129
8F'L	2FF	8A' 8f'L	.
8F'	.	8A' 8c'	.
8F'	.	8A' 8c'	.
8C'J	.	8A' 8f'J	.
*v	*v	*	*
=130	=130	=130
8F'L	8A' 8c'L	.
8F'	8A' 8c'	.
8F'	8A' 8c'	.
8C'J	8A' 8f'J	.
=131	=131	=131
*^	*	*
8G'L	[2FF	8B-' 8c'L	.
8F'	.	8B-' 8g'	.
8E'	.	8B-' 8g'	.
8D'J	.	8B-' 8g'J	.
=132	=132	=132	=132
8C'L	2FF]	8B-' 8g'L	.
8D'	.	8B-' 8g'J	.
8E'	.	(16B- 16gLL	.
.	.	16a	.
8C'J	.	16B- 16g	.
.	.	16aJJ)	.
=133	=133	=133	=133
8r	2F	8A 8f	.
8f'L	.	8cc' 8aa' 8ccc'L	.
8f'	.	8cc' 8aa' 8ccc'	.
8c'J	.	8ff' 8aa' 8ccc'J	.
=134	=134	=134	=134
*	*	*^	*
8f'L	2F	8aa' 8ccc'L	8ccL	.
8f'	.	8aa' 8ccc'	8cc	.
8f'	.	8aa' 8ccc'	8cc	.
8c'J	.	8aa' 8ccc'J	8ffJ	.
!!LO:LB:g=original
=135	=135	=135	=135	=135
8g'L	[2F	8bb-' 8ccc'L	8ccL	.
8f'	.	8bb-' 8ccc'	8dd	.
8e'	.	8bb-' 8ccc'	8ee	.
8d'J	.	8bb-' 8ccc'J	8ffJ	.
=136	=136	=136	=136	=136
8c'L	2F]	8bb-' 8ccc'L	8ggL	.
8e'	.	8bb-' 8ccc'	8ee	.
8d'	.	8bb-' 8ccc'	8ff	.
8c'J	.	8bb-' 8ccc'J	8ggJ	.
=137	=137	=137	=137	=137
8f'L	2F	8aa' 8ccc'L	8ccL	.
8f'	.	8aa' 8ccc'	8cc	.
8f'	.	8aa' 8ccc'	8cc	.
8c'J	.	8aa' 8ccc'J	8ffJ	.
=138	=138	=138	=138	=138
8f'L	2F	8aa' 8ccc'L	8ccL	.
8f'	.	8aa' 8ccc'	8cc	.
8f'	.	8aa' 8ccc'	8cc	.
8c'J	.	8aa' 8ccc'J	8ffJ	.
=139	=139	=139	=139	=139
8g'L	[2F	8bb-' 8ccc'L	8ccL	.
8f'	.	8bb-' 8ccc'	8dd	.
8e'	.	8bb-' 8ccc'	8ee	.
8d'J	.	8bb-' 8ccc'J	8ffJ	.
=140	=140	=140	=140	=140
8c'L	2F]	8bb-' 8ccc'L	8ggL	.
8e'	.	8bb-' 8ccc'	8ee	.
8d'	.	8bb-' 8ccc'	8ff	.
8c'J	.	8bb-' 8ccc'J	8ggJ	.
*v	*v	*	*	*
=141	=141	=141	=141
8f'	8aa 8ccc	8ff	.
*clefG2	*	*	*
8ee'L	8ryy	8aa' 8ccc'L	<
8dd'	4ryy	8aa' 8ccc'	.
8cc'J	.	8aa' 8ccc'J	.
*	*v	*v	*
=142	=142	=142
8b-'L	8ee' 8gg' 8ccc'L	.
8a'	8ee' 8gg' 8ccc'	.
8g'	8ee' 8gg' 8ddd'	.
8cc'J	8ee' 8gg' 8eee'J	.
!!LO:LB:g=original
=143	=143	=143
8f'	8ff' 8aa' 8fff'	.
*clefF4	*	*
8e'L	8cc' 8aa' 8ccc'L	.
8d'	8cc' 8aa' 8ccc'	.
8c'J	8cc' 8aa' 8ccc'J	.
=144	=144	=144
8B-'L	8cc' 8bb-' 8ccc'L	.
8A	8cc' 8bb-' 8ccc'	.
8G'	8dd' 8bb-' 8ccc'	.
8c'J	8ee' 8bb-' 8ccc'J	.
=145	=145	=145
8F' 8A'L	8ff' 8fff'L	.
8F' 8A'	8ee' 8eee'	.
8F' 8A'	8dd' 8ddd'	.
8F' 8A'J	8cc' 8ccc'J	.
=146	=146	=146
8F' 8G'L	8b-' 8bb-'L	.
8F' 8G'	8a' 8aa'	.
8E' 8G'	8g' 8gg'	.
8E 8GJ	8cc' 8ccc'J	.
=147	=147	=147
8F'	8f' 8ff'L	ff
8CC'L	8e' 8ee'	.
8CC'	8d' 8dd'	.
8CC'J	8c' 8cc'J	.
=148	=148	=148
8CC'L	8B-' 8b-'L	.
8CC'	8A' 8a'	.
8DD'	8G' 8g'	.
8EE'J	8c' 8cc'J	.
=149	=149	=149
4FFF 4FF	4f 4F<	.
4r	4r	.
=150	=150	=150
4r;	4r;	.
8r	8r	.
==:|!	==:|!	==:|!
*-	*-	*-
!!!RDF**kern: > = above
!!!RDF**kern: < = below
!!!RDF**kern: i = editorial accidental
!!!verovio: beamFrenchStyle
!!!LOR: Durand 1915, plates 9327/9328, Paul Dukas, ed.
!!!PED: Dukas, Paul
!!!URL-vhv: https://verovio.humdrum.org/?file=beethoven/sonatas/sonata06-3.krn
!!!URL-pdf: https://github.com/craigsapp/beethoven-piano-sonatas/blob/master/reference-edition/sonata06-3.pdf
!!!ENC: Craig Stuart Sapp
!!!END: 2005/09/03
!!!ENC: Craig Stuart Sapp
!!!EEV: 2022/05/01
